icons/svg/map_icon_download_gridvalg.svg

<svg fill="none" version="1.1" viewBox="0 0 24 24" xmlns="http://www.w3.org/2000/svg">
<path d="m2 8h6v8h-6" stroke="hsl(186,100%,33%)" stroke-dasharray="1 1"/>
<path d="m17 7.5v1h1v-1zm2 0v1h1v-1zm2 0v1h1v-1zm-5.5 0.5v1h1v-1zm0 2v1h1v-1zm0 2v1h1v-1zm4.5 3.5v1h1v-1z" style="-inkscape-stroke:none;color:#000000;fill:#0098a8;stroke-dasharray:1, 1"/>
<path d="m9 15.5v1h1v-1zm2 0v1h1v-1zm-3.5 0.5v1h1v-1zm0 2v1h1v-1zm0 2v1h1v-1z" style="-inkscape-stroke:none;color:#000000;fill:#0098a8;stroke-dasharray:1, 1"/>
<path d="m8 2v6h8v-6" stroke="hsl(186,100%,33%)" stroke-dasharray="1 1"/>
<rect x="7.6668" y="7.6666" width=".66667" height=".66667" stroke="hsl(186,100%,33%)" stroke-width=".66667"/>
<rect x="7.6668" y="15.667" width=".66667" height=".66667" stroke="hsl(186,100%,33%)" stroke-width=".66667"/>
<rect x="15.667" y="7.6666" width=".66667" height=".66667" stroke="hsl(186,100%,33%)" stroke-width=".66667"/>
<path d="m13.114 10.688c-0.684 0-1.2473 0.5633-1.2473 1.2473v4.9113l-0.2727-0.2861-0.104-0.091c-0.2312-0.2302-0.5443-0.3595-0.8706-0.3595s-0.63932 0.1293-0.87057 0.3595c-0.23022 0.2312-0.35947 0.5443-0.35947 0.8706s0.12925 0.6393 0.35947 0.8706v0.0129l3.4042 3.3651 0.0258 0.0129 0.0129 0.0262c0.5983 0.4535 1.328 0.6997 2.0788 0.7013h0.7151c0.4473 1e-3 0.8903-0.0865 1.3037-0.2572 0.4135-0.1708 0.7891-0.4215 1.1053-0.7378 0.3163-0.3163 0.567-0.6919 0.7377-1.1054 0.1707-0.4134 0.258-0.8565 0.2571-1.3038v-3.2478c0-0.684-0.5638-1.2473-1.2473-1.2473-0.1771 0-0.3409 0.0486-0.4939 0.1168-0.1364-0.5405-0.6282-0.9483-1.2082-0.9483-0.3185 0-0.6108 0.1247-0.8315 0.3247-0.2273-0.2077-0.5237-0.3234-0.8315-0.3247-0.1421 0.0018-0.2828 0.0282-0.4158 0.0781v-1.7411c0-0.684-0.5633-1.2473-1.2472-1.2473zm0 0.8315c0.2307 0 0.4157 0.185 0.4157 0.4158v4.5733h0.8315v-1.6631c0-0.2307 0.185-0.4157 0.4158-0.4157 0.2307 0 0.4157 0.185 0.4157 0.4157v1.6631h0.8315v-1.6631c0-0.2307 0.185-0.4157 0.4158-0.4157 0.2307 0 0.4157 0.185 0.4157 0.4157v1.6631h0.8706v-0.8315c0-0.2308 0.185-0.4158 0.4158-0.4158 0.2303 0 0.4157 0.185 0.4157 0.4158v3.2483c0 1.4401-1.1321 2.5722-2.5726 2.5722h-0.7143c-0.6091 0-1.1354-0.2174-1.5724-0.5459l-3.3651-3.326c-0.185-0.185-0.185-0.3867 0-0.5717 0.1854-0.185 0.3866-0.185 0.5716 0l1.7932 1.7932v-6.9119c0-0.2308 0.185-0.4158 0.4158-0.4158z" fill="hsl(186,100%,33%)"/>
</svg>

<?xml version="1.0" encoding="UTF-8" standalone="no"?>
<svg
   width="24"
   height="24"
   viewBox="0 0 24 24"
   fill="none"
   version="1.1"
   id="svg22"
   sodipodi:docname="map_icon_download_gridvalg.svg"
   inkscape:version="1.1.2 (0a00cf5339, 2022-02-04)"
   xmlns:inkscape="http://www.inkscape.org/namespaces/inkscape"
   xmlns:sodipodi="http://sodipodi.sourceforge.net/DTD/sodipodi-0.dtd"
   xmlns="http://www.w3.org/2000/svg"
   xmlns:svg="http://www.w3.org/2000/svg">
  <defs
     id="defs26" />
  <sodipodi:namedview
     id="namedview24"
     pagecolor="#505050"
     bordercolor="#eeeeee"
     borderopacity="1"
     inkscape:pageshadow="0"
     inkscape:pageopacity="0"
     inkscape:pagecheckerboard="0"
     showgrid="false"
     inkscape:zoom="17.125152"
     inkscape:cx="16.291826"
     inkscape:cy="12.934192"
     inkscape:window-width="2560"
     inkscape:window-height="1376"
     inkscape:window-x="0"
     inkscape:window-y="0"
     inkscape:window-maximized="1"
     inkscape:current-layer="svg22" />
  <path
     d="M2 8H8V16H2"
     stroke="hsl(186,100%,33%)"
     stroke-dasharray="1 1"
     id="path2" />
  <path
     style="color:#000000;fill:#000000;stroke-dasharray:1, 1;-inkscape-stroke:none"
     d="m 17,7.5 v 1 h 1 v -1 z m 2,0 v 1 h 1 v -1 z m 2,0 v 1 h 1 v -1 z M 15.5,8 v 1 h 1 V 8 Z m 0,2 v 1 h 1 v -1 z m 0,2 v 1 h 1 v -1 z m 4.5,3.5 v 1 h 1 v -1 z"
     id="path4"
     sodipodi:nodetypes="ccccccccccccccccccccccccccccccccccc" />
  <path
     style="color:#000000;fill:#000000;stroke-dasharray:1, 1;-inkscape-stroke:none"
     d="m 9,15.5 v 1 h 1 v -1 z m 2,0 v 1 h 1 v -1 z M 7.5,16 v 1 h 1 v -1 z m 0,2 v 1 h 1 v -1 z m 0,2 v 1 h 1 v -1 z"
     id="path6"
     sodipodi:nodetypes="ccccccccccccccccccccccccc" />
  <path
     d="M8 2V8H16V2"
     stroke="hsl(186,100%,33%)"
     stroke-dasharray="1 1"
     id="path8" />
  <rect
     x="7.66683"
     y="7.66659"
     width="0.666667"
     height="0.666667"
     stroke="hsl(186,100%,33%)"
     stroke-width="0.666667"
     id="rect12" />
  <rect
     x="7.66683"
     y="15.6666"
     width="0.666667"
     height="0.666667"
     stroke="hsl(186,100%,33%)"
     stroke-width="0.666667"
     id="rect14" />
  <rect
     x="15.6668"
     y="7.66659"
     width="0.666667"
     height="0.666667"
     stroke="hsl(186,100%,33%)"
     stroke-width="0.666667"
     id="rect16" />
  <path
     d="M13.1138 10.6875C12.4298 10.6875 11.8665 11.2508 11.8665 11.9348V16.8461L11.5938 16.56L11.4898 16.469C11.2586 16.2388 10.9455 16.1095 10.6192 16.1095C10.2929 16.1095 9.97988 16.2388 9.74863 16.469C9.51841 16.7002 9.38916 17.0133 9.38916 17.3396C9.38916 17.6659 9.51841 17.9789 9.74863 18.2102V18.2231L13.1528 21.5882L13.1786 21.6011L13.1915 21.6273C13.7898 22.0808 14.5195 22.327 15.2703 22.3286H15.9854C16.4327 22.3296 16.8757 22.2421 17.2891 22.0714C17.7026 21.9006 18.0782 21.6499 18.3944 21.3336C18.7107 21.0173 18.9614 20.6417 19.1321 20.2282C19.3028 19.8148 19.3901 19.3717 19.3892 18.9244V15.6766C19.3892 14.9926 18.8254 14.4293 18.1419 14.4293C17.9648 14.4293 17.801 14.4779 17.648 14.5461C17.5116 14.0056 17.0198 13.5978 16.4398 13.5978C16.1213 13.5978 15.829 13.7225 15.6083 13.9225C15.381 13.7148 15.0846 13.5991 14.7768 13.5978C14.6347 13.5996 14.494 13.626 14.361 13.6759V11.9348C14.361 11.2508 13.7977 10.6875 13.1138 10.6875ZM13.1138 11.519C13.3445 11.519 13.5295 11.704 13.5295 11.9348V16.5081H14.361V14.845C14.361 14.6143 14.546 14.4293 14.7768 14.4293C15.0075 14.4293 15.1925 14.6143 15.1925 14.845V16.5081H16.024V14.845C16.024 14.6143 16.209 14.4293 16.4398 14.4293C16.6705 14.4293 16.8555 14.6143 16.8555 14.845V16.5081H17.7261V15.6766C17.7261 15.4458 17.9111 15.2608 18.1419 15.2608C18.3722 15.2608 18.5576 15.4458 18.5576 15.6766V18.9249C18.5576 20.365 17.4255 21.4971 15.985 21.4971H15.2707C14.6616 21.4971 14.1353 21.2797 13.6983 20.9512L10.3332 17.6252C10.1482 17.4402 10.1482 17.2385 10.3332 17.0535C10.5186 16.8685 10.7198 16.8685 10.9048 17.0535L12.698 18.8467V11.9348C12.698 11.704 12.883 11.519 13.1138 11.519Z"
     fill="hsl(186,100%,33%)"
     id="path20" />
</svg>
